X:6
T:Back of the Pipes* (reel)
S:Sheahan MS
B:CRE4.161 (gan ainm)
F:file ID: cre.4/006back_p
B:CRE4.161 - gan ainm
L:1/8
Q:180
M:4/4
R:reel
K:G % source key A
BA|B3A G2Bd|edBd efge|dcBA GcBc|AGFG ABcA|
B3A G2 Bd|edBd efge|dgfg edcB|ADFG Ac :|
EF|GBdf g2 fg|afdf g2 dB|GBdf g2 dB|AGFG AcBA|
GBdf g2 fg|afdf g2 dB|GBdB ceAg|adef g2 :|

%%%

